svg/smoke_detector_off_outline.svg

<svg xmlns="http://www.w3.org/2000/svg" viewBox="0 0 24 24"><path d="m8.2 5-2-2H19a2 2 0 0 1 2 2v12.8l-2-2V5zm9.3 9.32c.32-.72.5-1.49.5-2.32 0-3.32-2.69-6-6-6-.83 0-1.6.18-2.32.5l1.59 1.57c.23-.04.48-.07.73-.07 2.21 0 4 1.79 4 4 0 .25-.03.5-.07.73zm4.61 7.14-1.27 1.27L19.1 21H5a2 2 0 0 1-2-2V4.9L1.11 3l1.28-1.27zM8 12c0 2.21 1.79 4 4 4 .62 0 1.19-.15 1.71-.4L8.4 10.29c-.25.52-.4 1.1-.4 1.71m9.11 7-1.92-1.92c-.93.58-2.02.92-3.19.92-3.31 0-6-2.69-6-6 0-1.17.34-2.26.92-3.19L5 6.89V19z"/></svg>

<svg xmlns="http://www.w3.org/2000/svg" id="mdi-smoke-detector-off-outline" viewBox="0 0 24 24"><path d="M8.2 5L6.2 3H19C20.11 3 21 3.9 21 5V17.8L19 15.8V5H8.2M17.5 14.32C17.82 13.6 18 12.83 18 12C18 8.68 15.31 6 12 6C11.17 6 10.4 6.18 9.68 6.5L11.27 8.07C11.5 8.03 11.75 8 12 8C14.21 8 16 9.79 16 12C16 12.25 15.97 12.5 15.93 12.73L17.5 14.32M22.11 21.46L20.84 22.73L19.1 21C19.07 21 19.03 21 19 21H5C3.89 21 3 20.1 3 19V5C3 4.97 3 4.93 3 4.9L1.11 3L2.39 1.73L22.11 21.46M8 12C8 14.21 9.79 16 12 16C12.62 16 13.19 15.85 13.71 15.6L8.4 10.29C8.15 10.81 8 11.39 8 12M17.11 19L15.19 17.08C14.26 17.66 13.17 18 12 18C8.69 18 6 15.31 6 12C6 10.83 6.34 9.74 6.92 8.81L5 6.89V19H17.11Z" /></svg>
